X:585
T: Tam Lin Rastafari (dm)
Z: Piano Box Version by Martin Fleischmann
H: Created 2014-05-28 /  Last Modified 2014-05-28
R: reel
%%score (M1) (M2)
V:M1  clef=treble  
V:M2  clef=treble    
M: 4/4
L: 1/8
K: Dmin
P:A1
[V:M1]"dm"z2[D2FA]z2[D2FA]| "gm"z2[D2G]z2[D2G]| "C"z2[C2E]z2[C2E]|1 "am"z2AG AGFE:|2 "am"z2DC DCA,G,|
[V:M2]"dm"ADD2 ADD2| "gm"FGGF G2 G2| "C"ECC2 ECC2|1 "am"z2[E2A]z2[E2A]:|2 "am"z2[E2A]z2[E2A]|
P:A2
[V:M1]"dm"A,2DA, FA,DA,| "gm"B,2DB, FB,DB,| "C"C2EC GCEC|1 "am"FEDC "dm"!!A,DDC:|2"am"FEDC "dm"!!A,DD2|
[V:M2]"dm"ADDD z2D2| "gm"FGGG z2 G2| "C"ECCC z2C2|1 "am"z2[E2A]z2[E2A]:|2 "am"z2[E2A]"dm"z2[DFA]z|
P:B
[V:M1]|:"dm"dAAA FADA| dAAA FADA| "C"cGGG EGGG| cGGG cdec|
[V:M2]|:"dm"ADDD z2D2| ADDD z2D2| "C"GCCC z2C2| z2C2z2C2|
[V:M1]"dm"dAAA FADA| dAAA FADz| "gm"B,3A, B,CDE| "am"FDEC "dm"A,DD2:|
[V:M2]"dm"ADDD z2D2| zDDD z2D2| "gm"z2[D2G]z2[D2G]| "am"z2[E2A]"dm"z2[D2FA]:|

